img/i_disc.svg

<svg width="28" height="21" viewBox="0 0 28 21" fill="none" xmlns="http://www.w3.org/2000/svg">
<g opacity="0.8" clip-path="url(#clip0_586_17657)">
<path d="M27.9066 12.9212C27.5696 9.15161 26.2808 5.71026 24.2552 2.5097C23.9297 1.96765 23.4225 1.55367 22.8204 1.33869C21.3054 0.75504 19.7388 0.309791 18.1405 0.00858893C17.9851 -0.0193604 17.9056 0.0222051 17.8407 0.156219C17.662 0.526727 17.46 0.887202 17.298 1.26488C17.2251 1.43544 17.1347 1.46482 16.9698 1.44046C15.8068 1.2705 14.6308 1.20191 13.4555 1.23549C12.6631 1.24905 11.8726 1.31513 11.0893 1.43329C10.8828 1.46626 10.7705 1.43329 10.6815 1.21829C10.5269 0.848503 10.3168 0.501643 10.1418 0.137585C10.0783 0.00643811 9.99588 -0.0164938 9.85875 0.00858893C7.98853 0.344177 6.16623 0.899756 4.43119 1.66333C4.31613 1.71479 4.21917 1.79858 4.15255 1.90413C2.34069 4.60088 1.03431 7.50547 0.412848 10.6917C0.243563 11.5705 0.124723 12.4579 0.0568942 13.3497C0.0568942 13.3978 0.0751296 13.4608 0 13.4809V13.6959C0.0474119 13.7446 0.0204234 13.8048 0.0277175 13.86V14.0685C0.0204234 14.1237 0.0474119 14.1846 0 14.2334V14.3939C0.0444911 14.5155 0.0444911 14.6485 0 14.7701V15.2001C0.0444911 15.3217 0.0444911 15.4548 0 15.5764V15.9526C0.0364707 15.9856 0.0255293 16.03 0.0277175 16.0709V16.2629C0.0277175 16.3045 0.0364707 16.3489 0 16.3819V16.5969C0.0583531 16.6972 0.0240707 16.8069 0.0262589 16.9115C0.0335531 17.2698 0.0933647 17.5565 0.44713 17.7937C2.43114 19.1259 4.53549 20.2095 6.83023 20.9233C7.19494 21.0373 7.26788 21.0158 7.49108 20.7011C7.86162 20.1794 8.19569 19.6362 8.51226 19.0829C8.82882 18.5297 8.82444 18.5197 8.23435 18.286C7.7099 18.0782 7.21317 17.8116 6.71133 17.5579C6.62235 17.5128 6.48522 17.4734 6.58587 17.3236C6.64542 17.2327 6.73659 17.1662 6.84235 17.1366C6.94811 17.1069 7.06125 17.1161 7.16065 17.1623C7.86656 17.4755 8.59474 17.7378 9.33941 17.9471C10.7115 18.3473 12.1318 18.5664 13.5627 18.5985C14.1266 18.6071 14.6897 18.5985 15.255 18.5576C16.8272 18.4378 18.3743 18.1 19.8503 17.5543C20.2004 17.4261 20.5439 17.2813 20.8882 17.1401C21.0611 17.0684 21.3813 17.2003 21.4127 17.3623C21.4484 17.5429 21.2668 17.5644 21.1552 17.6195C20.6118 17.8919 20.0705 18.1692 19.498 18.3835C19.2317 18.4831 19.2062 18.5734 19.3302 18.8135C19.676 19.4744 20.0697 20.11 20.5082 20.7155C20.7496 21.0487 20.7722 21.0502 21.1647 20.9262C22.5261 20.4961 23.8446 19.9444 25.1035 19.2779C26.0011 18.7951 26.8683 18.2595 27.7002 17.674C27.7817 17.6257 27.8482 17.5563 27.8923 17.4734C27.9364 17.3905 27.9565 17.2972 27.9504 17.2039C27.9401 16.9825 27.9565 16.7607 27.9993 16.5431V16.2206C27.9628 16.1877 27.9737 16.1433 27.9715 16.1024V15.9103C27.9715 15.8688 27.9628 15.8243 27.9993 15.7914V15.4689C27.9533 15.184 27.9533 14.8938 27.9993 14.6089V14.2871C27.9314 14.247 27.9475 14.1839 27.9519 14.1237C27.9519 14.0879 27.9519 14.0521 27.9519 14.0162C27.9519 13.9804 27.9519 13.9446 27.9519 13.9087C27.9519 13.8729 27.9307 13.817 27.9971 13.8034V13.5346C27.9868 13.5203 27.9791 13.5043 27.9745 13.4873C27.8935 13.3075 27.9234 13.1082 27.9066 12.9212ZM11.0222 13.5927C10.0871 14.5122 8.67054 14.52 7.71865 13.6163C6.61578 12.5679 6.54284 10.7039 7.56037 9.57372C8.75734 8.24433 10.8019 8.57041 11.5867 10.213C11.7826 10.6184 11.88 11.0629 11.8712 11.5115C11.8559 12.3106 11.6057 13.0187 11.0222 13.5927ZM20.3419 13.5805C19.406 14.5122 17.9764 14.5251 17.0187 13.612C15.8472 12.4969 15.8574 10.4968 17.0391 9.39527C18.3323 8.18915 20.3798 8.74312 20.9976 10.4667C21.1165 10.7978 21.1836 11.1382 21.1749 11.3381C21.1683 12.2927 20.9218 13.0022 20.3419 13.5805Z" fill="#464F60" fill-opacity="0.7"/>
</g>
<defs>
<clipPath id="clip0_586_17657">
<rect width="28" height="21" fill="white"/>
</clipPath>
</defs>
</svg>

<svg xmlns="http://www.w3.org/2000/svg" width="28" height="21" fill="none" viewBox="0 0 28 21">
  <g clip-path="url(#a)">
    <path fill="#7D8490" d="M27.907 12.921c-.337-3.77-1.626-7.21-3.652-10.411a2.75 2.75 0 0 0-1.435-1.171 26.85 26.85 0 0 0-4.68-1.33c-.155-.028-.234.013-.3.147-.178.37-.38.731-.542 1.109-.073.17-.163.2-.328.175a20.296 20.296 0 0 0-3.514-.205 17.92 17.92 0 0 0-2.367.198c-.206.033-.319 0-.408-.215-.154-.37-.364-.716-.54-1.08-.063-.132-.145-.154-.282-.13A24.08 24.08 0 0 0 4.43 1.664a.636.636 0 0 0-.278.241C2.34 4.601 1.034 7.505.413 10.692c-.17.878-.288 1.766-.356 2.658 0 .048.018.11-.057.13v.216c.047.049.02.109.028.164v.209c-.008.055.02.116-.028.164v.16a.547.547 0 0 1 0 .377v.43a.547.547 0 0 1 0 .376v.377c.036.033.026.077.028.118v.192c0 .041.008.086-.028.119v.215c.058.1.024.21.026.314.008.359.067.645.421.883 1.984 1.332 4.088 2.415 6.383 3.13.365.113.438.092.661-.223.37-.522.705-1.065 1.021-1.618.317-.553.312-.563-.278-.797-.524-.208-1.02-.474-1.523-.728-.089-.045-.226-.085-.125-.234a.46.46 0 0 1 .575-.161c.706.313 1.434.575 2.178.784 1.372.4 2.793.62 4.224.652.564.008 1.127 0 1.692-.041a16.96 16.96 0 0 0 4.595-1.004c.35-.128.694-.273 1.038-.414.173-.072.493.06.525.222.035.18-.146.202-.258.258-.543.272-1.085.55-1.657.764-.266.1-.292.19-.168.43.346.66.74 1.296 1.178 1.901.242.334.264.335.657.211 1.361-.43 2.68-.982 3.939-1.648a25.495 25.495 0 0 0 2.596-1.604.514.514 0 0 0 .25-.47 2.76 2.76 0 0 1 .05-.66v-.323c-.037-.033-.026-.078-.029-.119v-.192c0-.041-.008-.086.028-.119v-.322a2.697 2.697 0 0 1 0-.86v-.322c-.068-.04-.051-.103-.047-.163v-.215c0-.036-.021-.092.045-.106v-.268a.146.146 0 0 1-.023-.048c-.08-.18-.05-.379-.067-.566Zm-16.885.672c-.935.92-2.351.927-3.303.023-1.103-1.048-1.176-2.912-.159-4.042 1.197-1.33 3.242-1.004 4.027.639.196.405.293.85.284 1.299-.015.799-.265 1.507-.849 2.08Zm9.32-.012c-.936.931-2.366.944-3.323.031-1.172-1.115-1.162-3.115.02-4.217 1.293-1.206 3.34-.652 3.959 1.072.118.33.186.671.177.871-.007.955-.253 1.664-.833 2.243Z"/>
  </g>
  <defs>
    <clipPath id="a">
      <path fill="#fff" d="M0 0h28v21H0z"/>
    </clipPath>
  </defs>
</svg>
